X: 179
T:Doctor Laing -- Fochabers
B:William Marshall's Scottish Airs, Melodies, Strathspeys, Reels &c (1822)
C:William Marshall
L:1/8
M:C
N:Set piece?  Slowly.
O:Scotland
R:Air
Z:Clark Bernst + Richard Robinson
%%Page:26 - 1
F:http://richardrobinson.tunebook.org.uk/tune/4022
%%TBL:{"version":1,"type":"tune","id":"4022"}
K:Eb
%%staves {1 2}
V:1
"^Slowly"
B, |\
[G,E]2 (GE) BE (A/G/)(F/E/) | B,E (A/G/)F/E/ DF-F!wedge!G | \
[G,E]2 GE BE (A/G/)(F/E/) | (c/B/)c/d/ (e/d/)c/B/ GE-E  ||
|: z |\
~g2 ef/g/ agfe | (d/e/)f/g/ (a/g/)f/e/ df-f.d | \
e2 Bc/d/ (e/d/)c/B/ (c/B/)A/G/ | A>c (B/G/)(F/E/) B,E-E  :|
z |\
(B,/E/)D/E/ (G/E/)D/E/ (B/E/)D/E/ (G/E/)D/E/ | (B,/E/)D/E/ (A/G/)F/E/ [B,D]F-F!wedge!G | \
(B,/E/)D/E/ (G/E/)D/E/ (B/E/)D/E/ (G/E/)D/E/ | (!trill!c/B/)c/d/ (e/c/)B/A/ GE-E ||
z |\
e/f/g/f/ e/d/c/B/ c/d/e/d/ c/B/A/G/ | A/B/c/B/ A/G/F/E/ DF~F z | \
e/f/g/f/ e/d/c/B/ c/d/e/d/ c/B/A/G/ | A>c B/G/F/E/ B,E-~Ez |
e/f/g/a/ .b.B c/d/e/f/ .g.G | A/B/c/d/ .e.E F/E/D/C/ B,(G/F/) |\
~E>FEG, !f!(A,G,)(CB,) | ~B>c B/A/G/F/ G[G,E][G,E]  |]
V:2 middle=d clef=bass
L:1/4
z/ | EeEe | GEBd | eEGE | ABE/e/E/ |: \
z/ | ee'Aa | BeBb | eg/a/ge | ABE/e/E/ :| \
z/ | EeEe | EeB/b/ B/d/ | eEeG | A A/B/ E/e/E/ || \
L:1/8
z | Ee ge ae ge | Aa A=A BbBz | Ee ge ae ge | a2 bB EeEz |\
e'e dd' c'c Bb | Aa ge BbBz | e2E2 cBAG | B2 bB EeE |]

